X:27
T:27 The Honeymoon
C:Welch MS
I:abc2nwc
M:2/4
L:1/16
K:D
A3d d2d2|d3f f2a2|g3f e2d2|c3e e4|A3d d2d2|d3f f2a2|g3f e2f2|d4d4:|
d3A A4|B3c d2B2|A2F2 E2D2|C2E2 E4d3A A4|B3c d2e2|f2g2 e2f2|d4d4:|


